svgs/solid/grid.svg

<svg xmlns="http://www.w3.org/2000/svg" viewBox="0 0 448 512"><!--! Font Awesome Pro 6.6.0 by @fontawesome - https://fontawesome.com License - https://fontawesome.com/license (Commercial License) Copyright 2024 Fonticons, Inc. --><path d="M0 72C0 49.9 17.9 32 40 32l48 0c22.1 0 40 17.9 40 40l0 48c0 22.1-17.9 40-40 40l-48 0c-22.1 0-40-17.9-40-40L0 72zM0 232c0-22.1 17.9-40 40-40l48 0c22.1 0 40 17.9 40 40l0 48c0 22.1-17.9 40-40 40l-48 0c-22.1 0-40-17.9-40-40l0-48zM128 392l0 48c0 22.1-17.9 40-40 40l-48 0c-22.1 0-40-17.9-40-40l0-48c0-22.1 17.9-40 40-40l48 0c22.1 0 40 17.9 40 40zM160 72c0-22.1 17.9-40 40-40l48 0c22.1 0 40 17.9 40 40l0 48c0 22.1-17.9 40-40 40l-48 0c-22.1 0-40-17.9-40-40l0-48zM288 232l0 48c0 22.1-17.9 40-40 40l-48 0c-22.1 0-40-17.9-40-40l0-48c0-22.1 17.9-40 40-40l48 0c22.1 0 40 17.9 40 40zM160 392c0-22.1 17.9-40 40-40l48 0c22.1 0 40 17.9 40 40l0 48c0 22.1-17.9 40-40 40l-48 0c-22.1 0-40-17.9-40-40l0-48zM448 72l0 48c0 22.1-17.9 40-40 40l-48 0c-22.1 0-40-17.9-40-40l0-48c0-22.1 17.9-40 40-40l48 0c22.1 0 40 17.9 40 40zM320 232c0-22.1 17.9-40 40-40l48 0c22.1 0 40 17.9 40 40l0 48c0 22.1-17.9 40-40 40l-48 0c-22.1 0-40-17.9-40-40l0-48zM448 392l0 48c0 22.1-17.9 40-40 40l-48 0c-22.1 0-40-17.9-40-40l0-48c0-22.1 17.9-40 40-40l48 0c22.1 0 40 17.9 40 40z"/></svg>

<svg xmlns="http://www.w3.org/2000/svg" viewBox="0 0 448 512"><!--! Font Awesome Pro 6.5.2 by @fontawesome - https://fontawesome.com License - https://fontawesome.com/license (Commercial License) Copyright 2024 Fonticons, Inc. --><path d="M0 72C0 49.9 17.9 32 40 32H88c22.1 0 40 17.9 40 40v48c0 22.1-17.9 40-40 40H40c-22.1 0-40-17.9-40-40V72zM0 232c0-22.1 17.9-40 40-40H88c22.1 0 40 17.9 40 40v48c0 22.1-17.9 40-40 40H40c-22.1 0-40-17.9-40-40V232zM128 392v48c0 22.1-17.9 40-40 40H40c-22.1 0-40-17.9-40-40V392c0-22.1 17.9-40 40-40H88c22.1 0 40 17.9 40 40zM160 72c0-22.1 17.9-40 40-40h48c22.1 0 40 17.9 40 40v48c0 22.1-17.9 40-40 40H200c-22.1 0-40-17.9-40-40V72zM288 232v48c0 22.1-17.9 40-40 40H200c-22.1 0-40-17.9-40-40V232c0-22.1 17.9-40 40-40h48c22.1 0 40 17.9 40 40zM160 392c0-22.1 17.9-40 40-40h48c22.1 0 40 17.9 40 40v48c0 22.1-17.9 40-40 40H200c-22.1 0-40-17.9-40-40V392zM448 72v48c0 22.1-17.9 40-40 40H360c-22.1 0-40-17.9-40-40V72c0-22.1 17.9-40 40-40h48c22.1 0 40 17.9 40 40zM320 232c0-22.1 17.9-40 40-40h48c22.1 0 40 17.9 40 40v48c0 22.1-17.9 40-40 40H360c-22.1 0-40-17.9-40-40V232zM448 392v48c0 22.1-17.9 40-40 40H360c-22.1 0-40-17.9-40-40V392c0-22.1 17.9-40 40-40h48c22.1 0 40 17.9 40 40z"/></svg>
